X:1
T:Panis angelicus - Casciolini
T:James Gibb editions
%%score [ 1 2 3 ]
L:1/8
Q:1/4=88
M:4/4
K:C
V:1 treble nm="Alto" snm="A"
V:2 treble-8 nm="Tenor" snm="T"
V:3 bass nm="Bass" snm="B"
V:1
"^Claudio Casciolini\n(1697-1760)""^Panis Angelicus" A4 ^G2 A2 | B3 B B2 c2 | A4 G4 | F3 F G2 B2 | %4
w: Pa- nis an-|ge- li- cus fit|pa- nis|ho- mi- num, fit|
 c4 G4 | A3 A B4 | z2 B2 B2 c2 ||[M:3/4] x6 |[M:3/4] A3 A A2 | A2 A2 B2 | ^G3 G G2 | A2 A2 c2 || %12
w: pa- nis|ho- mi- num,|dat pa- nis||cae- li- cus|fi- gu- ris|ter- mi- num,|fi- gu- ris|
[M:4/4] c2 B2 c4 | z2 c2 G2 c2 | B3 B B4 | z2 A2 E2 A2 ||[M:3/4] x6 |[M:3/4] ^G3 G G2 | ^G2 A2 B2 | %19
w: ter- mi- num,|O res mi-|ra- bi- lis,|O res mi-||ra- bi- lis,|man- du- cat|
 c3 c B2 | B2 c2 c2 | A3 A G2 | c4 c2 | B4 B2 | d4 d2 | (c3 B) A2 | B2 A2 ^G2 || %27
w: Do- mi- num,|man- du- cat|Do- mi- num,|pau- per|ser- vus,|pau- per|ser\- * vus|et hu- mi-|
[M:4/4] A2 c2 A3 A | ^G4[Q:1/4=86] A4 | %29
w: lis, et hu- mi-|lis, et|
[Q:1/4=84] (F[Q:1/4=84]G[Q:1/4=83] A2-[Q:1/4=81] A2)[Q:1/4=80] ^G2 |[Q:1/4=54] !fermata!A4 |] %31
w: hu\- * * * mi-|lis.|
V:2
 c4 B2 c2 | d3 d d2 e2 | c4 c4 | c2 B2 c2 d2 | e4 d4 | c3 c d4 | z2 d2 d2 e2 ||[M:3/4] x6 | %8
w: Pa- nis an-|ge- li- cus fit|pa- nis|ho- mi- num, fit|pa- nis|ho- mi- num,|dat pa- nis||
[M:3/4][K:treble-8] c3 c c2 | c2 c2 d2 | B3 B B2 | c2 c2 e2 ||[M:4/4] d3 d e4 | z2 e2 d2 e2 | %14
w: cae- li- cus|fi- gu- ris|ter- mi- num,|fi- gu- ris|ter- mi- num,|O res mi-|
 d3 d d4 | z2 c2 B2 c2 ||[M:3/4] x6 |[M:3/4][K:treble-8] B3 B B2 | B2 c2 d2 | e3 e d2 | d2 e2 e2 | %21
w: ra- bi- lis,|O res mi-||ra- bi- lis,|man- du- cat|Do- mi- num,|man- du- cat|
 c3 c c2 | e4 e2 | d4 d2 | f4 f2 | (e3 d) c2 | d2 B3 B ||[M:4/4] c2 e2 e2 d2 | e4 e4 | %29
w: Do- mi- num,|pau- per|ser- vus,|pau- per|ser\- * vus|et hu- mi-|lis, et hu- mi-|lis, et|
 (d3 c B3) B | !fermata!^c4 |] %31
w: hu\- * * mi-|lis.|
V:3
 A,4 E,2 A,2 | G,3 G, G,2 E,2 | F,4 E,4 | D,3 D, C,2 G,2 | C4 B,4 | A,3 A, G,4 | z2 G,2 G,2 E,2 || %7
w: Pa- nis an-|ge- li- cus fit|pa- nis|ho- mi- num, fit|pa- nis|ho- mi- num,|dat pa- nis|
[M:3/4] x6 |[M:3/4] F,3 F, F,2 | F,2 F,2 D,2 | E,3 E, E,2 | A,2 F,2 C,2 ||[M:4/4] G,3 G, C,4 | %13
w: |cae- li- cus|fi- gu- ris|ter- mi- num,|fi- gu- ris|ter- mi- num,|
 z2 C2 B,2 C2 | G,3 G, G,4 | z2 A,2 ^G,2 A,2 ||[M:3/4] x6 |[M:3/4] E,3 E, E,2 | E,2 A,2 G,2 | %19
w: O res mi-|ra- bi- lis,|O res mi-||ra- bi- lis,|man- du- cat|
 C3 C G,2 | G,2 E,2 E,2 | F,3 F, E,2 | (C,3 D,) (E,F,) | G,4 G,2 | (D,3 E,) (F,G,) | A,4 A,2 | %26
w: Do- mi- num,|man- du- cat|Do- mi- num,|pau\- * per *|ser- vus,|pau\- * per *|ser- vus|
 D,2 E,3 E, ||[M:4/4] A,,2 A,2 F,3 F, | E,4 C,4 | (D,4 E,3) E, | !fermata!A,,4 |] %31
w: et hu- mi-|lis, et hu- mi-|lis, et|hu\- * mi-|lis.|

